packages/Snapp/src/SettingIcon/index.svg

<?xml version="1.0" encoding="UTF-8"?>
<svg width="24px" height="24px" viewBox="0 0 24 24" version="1.1" xmlns="http://www.w3.org/2000/svg" xmlns:xlink="http://www.w3.org/1999/xlink">
    <title>Icons/24/Setting</title>
    <g id="Icons/24/Setting" stroke="none" stroke-width="1" fill="none" fill-rule="evenodd">
        <rect id="Container" fill-opacity="0" fill="#D8D8D8" fill-rule="nonzero" x="0" y="0" width="24" height="24"></rect>
        <path d="M12,1 C13.5564388,1 14.8181818,2.26174298 14.8181818,3.81818182 L14.8181739,3.89601169 C14.8189687,4.09529742 14.9380313,4.27508191 15.1310381,4.35786469 C15.3180351,4.44039392 15.536436,4.40079374 15.6747114,4.26562049 L15.7288636,4.21146847 C16.2574651,3.68227863 16.9747558,3.38493335 17.7227273,3.38493335 C18.4706988,3.38493335 19.1879895,3.68227863 19.7158043,4.21068182 C20.2449941,4.73928327 20.5423394,5.45657394 20.5423394,6.20454545 C20.5423394,6.95251697 20.2449941,7.66980764 19.7161977,8.19801587 L19.669408,8.24471951 C19.526479,8.3908367 19.4868788,8.60923767 19.569408,8.79623466 C19.5950962,8.85443959 19.6151012,8.91480303 19.6292457,8.97648372 C19.7215306,9.10318658 19.8693285,9.18118181 20.0272727,9.18181818 L20.1818182,9.18181818 C21.738257,9.18181818 23,10.4435612 23,12 C23,13.5564388 21.738257,14.8181818 20.1818182,14.8181818 L20.1039883,14.8181739 C19.9047026,14.8189687 19.7249181,14.9380313 19.6464126,15.1212042 L19.6421353,15.1310381 C19.5596061,15.3180351 19.5992063,15.536436 19.7343795,15.6747114 L19.7885315,15.7288636 C20.3177214,16.2574651 20.6150666,16.9747558 20.6150666,17.7227273 C20.6150666,18.4706988 20.3177214,19.1879895 19.7893182,19.7158043 C19.2607167,20.2449941 18.5434261,20.5423394 17.7954545,20.5423394 C17.047483,20.5423394 16.3301924,20.2449941 15.8019841,19.7161977 L15.7552805,19.669408 C15.6091633,19.526479 15.3907623,19.4868788 15.1939314,19.5736853 C15.0107585,19.6521908 14.891696,19.8319753 14.8909091,20.0272727 L14.8909091,20.1818182 C14.8909091,21.738257 13.6291661,23 12.0727273,23 C10.5162884,23 9.25454545,21.738257 9.25454545,20.1818182 L9.25481891,20.1233846 C9.25001788,19.9181333 9.1202346,19.7366771 8.86896193,19.6421353 C8.68196494,19.5596061 8.46356397,19.5992063 8.3252886,19.7343795 L8.27113636,19.7885315 C7.74253491,20.3177214 7.02524424,20.6150666 6.27727273,20.6150666 C5.52930121,20.6150666 4.81201054,20.3177214 4.28419575,19.7893182 C3.7550059,19.2607167 3.45766062,18.5434261 3.45766062,17.7954545 C3.45766062,17.047483 3.7550059,16.3301924 4.28380231,15.8019841 L4.33059196,15.7552805 C4.47352101,15.6091633 4.51312119,15.3907623 4.42631472,15.1939314 C4.34780918,15.0107585 4.1680247,14.891696 3.97272727,14.8909091 L3.81818182,14.8909091 C2.26174298,14.8909091 1,13.6291661 1,12.0727273 C1,10.5162884 2.26174298,9.25454545 3.81818182,9.25454545 L3.87661541,9.25481891 C4.08186668,9.25001788 4.26332294,9.1202346 4.35786469,8.86896193 C4.44039392,8.68196494 4.40079374,8.46356397 4.26562049,8.3252886 L4.21146847,8.27113636 C3.68227863,7.74253491 3.38493335,7.02524424 3.38493335,6.27727273 C3.38493335,5.52930121 3.68227863,4.81201054 4.21068182,4.28419575 C4.73928327,3.7550059 5.45657394,3.45766062 6.20454545,3.45766062 C6.95251697,3.45766062 7.66980764,3.7550059 8.19801587,4.28380231 L8.24471951,4.33059196 C8.3908367,4.47352101 8.60923767,4.51312119 8.79623466,4.43059196 C8.85443959,4.40490381 8.91480303,4.3848988 8.97648372,4.37075435 C9.10318658,4.27846943 9.18118181,4.13067151 9.18181818,3.97272727 L9.18181818,3.81818182 C9.18181818,2.26174298 10.4435612,1 12,1 Z M12,3 C11.5481307,3 11.1818182,3.36631248 11.1818182,3.81818182 L11.1818102,3.97671558 C11.1778361,4.97314425 10.5825233,5.87206667 9.66665871,6.26459437 C9.5851084,6.29954578 9.49946372,6.32340644 9.41201019,6.33570722 C8.52264863,6.64377347 7.52682033,6.42609141 6.83834776,5.75256133 L6.78340909,5.69762243 C6.62994415,5.54398667 6.42169848,5.45766062 6.20454545,5.45766062 C5.98739243,5.45766062 5.77914676,5.54398667 5.62489516,5.69840909 C5.4712594,5.85187403 5.38493335,6.06011971 5.38493335,6.27727273 C5.38493335,6.49442575 5.4712594,6.70267143 5.6252886,6.85652958 L5.68758986,6.91891686 C6.40223513,7.64950282 6.600236,8.74150766 6.21126338,9.61790836 C5.8569222,10.5813504 4.94964092,11.2302669 3.9,11.2545455 L3.81818182,11.2545455 C3.36631248,11.2545455 3,11.6208579 3,12.0727273 C3,12.5245966 3.36631248,12.8909091 3.81818182,12.8909091 L3.97671558,12.890917 C4.97314425,12.8948911 5.87206667,13.490204 6.26031713,14.3962347 C6.67296328,15.3312196 6.4749624,16.4232245 5.75256133,17.1616522 L5.69762243,17.2165909 C5.54398667,17.3700558 5.45766062,17.5783015 5.45766062,17.7954545 C5.45766062,18.0126076 5.54398667,18.2208532 5.69840909,18.3751048 C5.85187403,18.5287406 6.06011971,18.6150666 6.27727273,18.6150666 C6.49442575,18.6150666 6.70267143,18.5287406 6.85652958,18.3747114 L6.91891686,18.3124101 C7.64950282,17.5977649 8.74150766,17.399764 9.61790836,17.7887366 C10.5813504,18.1430778 11.2302669,19.0503591 11.2545455,20.1 L11.2545455,20.1818182 C11.2545455,20.6336875 11.6208579,21 12.0727273,21 C12.5245966,21 12.8909091,20.6336875 12.8909091,20.1818182 L12.890917,20.0232844 C12.8948911,19.0268557 13.490204,18.1279333 14.3962347,17.7396829 C15.3312196,17.3270367 16.4232245,17.5250376 17.1616522,18.2474387 L17.2165909,18.3023776 C17.3700558,18.4560133 17.5783015,18.5423394 17.7954545,18.5423394 C18.0126076,18.5423394 18.2208532,18.4560133 18.3751048,18.3015909 C18.5287406,18.148126 18.6150666,17.9398803 18.6150666,17.7227273 C18.6150666,17.5055743 18.5287406,17.2973286 18.3747114,17.1434704 L18.3124101,17.0810831 C17.5990151,16.3517753 17.4004584,15.2623121 17.81025,14.328416 C18.2038868,13.4153423 19.1013781,12.8221567 20.1,12.8181818 L20.1818182,12.8181818 C20.6336875,12.8181818 21,12.4518693 21,12 C21,11.5481307 20.6336875,11.1818182 20.1818182,11.1818182 L20.0232844,11.1818102 C19.0268557,11.1778361 18.1279333,10.5825233 17.7354056,9.66665871 C17.7004542,9.5851084 17.6765936,9.49946372 17.6642928,9.41201019 C17.3562265,8.52264863 17.5739086,7.52682033 18.2474387,6.83834776 L18.3023776,6.78340909 C18.4560133,6.62994415 18.5423394,6.42169848 18.5423394,6.20454545 C18.5423394,5.98739243 18.4560133,5.77914676 18.3015909,5.62489516 C18.148126,5.4712594 17.9398803,5.38493335 17.7227273,5.38493335 C17.5055743,5.38493335 17.2973286,5.4712594 17.1434704,5.6252886 L17.0810831,5.68758986 C16.3504972,6.40223513 15.2584923,6.600236 14.3333413,6.1918671 C13.4174767,5.7993394 12.8221639,4.90041698 12.8181818,3.9 L12.8181818,3.81818182 C12.8181818,3.36631248 12.4518693,3 12,3 Z M12,8 C14.209139,8 16,9.790861 16,12 C16,14.209139 14.209139,16 12,16 C9.790861,16 8,14.209139 8,12 C8,9.790861 9.790861,8 12,8 Z M12,10 C10.8954305,10 10,10.8954305 10,12 C10,13.1045695 10.8954305,14 12,14 C13.1045695,14 14,13.1045695 14,12 C14,10.8954305 13.1045695,10 12,10 Z" id="Combined-Shape" fill="#404040" fill-rule="nonzero"></path>
    </g>
</svg>

<svg viewBox="0 0 24 24" xmlns="http://www.w3.org/2000/svg" fill="currentColor" focusable="false">
  <path d="M12 1a2.818 2.818 0 012.818 2.818v.078c.001.2.12.38.313.462a.497.497 0 00.544-.092l.054-.055a2.818 2.818 0 113.987 3.987l-.047.047a.5.5 0 00-.1.551 1 1 0 01.06.18c.093.127.24.205.398.206h.155a2.818 2.818 0 010 5.636h-.078a.5.5 0 00-.458.303l-.004.01a.497.497 0 00.092.544l.055.054a2.818 2.818 0 11-3.987 3.987l-.047-.047a.504.504 0 00-.561-.095.499.499 0 00-.303.453v.155a2.818 2.818 0 01-5.636 0v-.059c-.005-.205-.135-.386-.386-.48a.497.497 0 00-.544.091l-.054.055a2.818 2.818 0 11-3.987-3.987l.047-.047a.504.504 0 00.095-.561.499.499 0 00-.453-.303h-.155a2.818 2.818 0 010-5.636h.059c.205-.005.386-.135.48-.386a.497.497 0 00-.091-.544l-.055-.054a2.818 2.818 0 113.987-3.987l.047.047a.5.5 0 00.551.1 1 1 0 01.18-.06.497.497 0 00.206-.398v-.155A2.818 2.818 0 0112 1zm0 2a.818.818 0 00-.818.818v.159a2.5 2.5 0 01-1.515 2.288 1 1 0 01-.255.07 2.504 2.504 0 01-2.574-.582l-.055-.055a.818.818 0 10-1.158 1.159l.063.062c.714.73.912 1.823.523 2.699A2.507 2.507 0 013.9 11.255h-.082a.818.818 0 100 1.636h.159c.996.004 1.895.6 2.283 1.505a2.504 2.504 0 01-.507 2.766l-.055.055a.818.818 0 101.159 1.158l.062-.063c.73-.714 1.823-.912 2.699-.523a2.507 2.507 0 011.637 2.311v.082a.818.818 0 101.636 0v-.159c.004-.996.6-1.895 1.505-2.283a2.504 2.504 0 012.766.507l.055.055a.818.818 0 101.158-1.159l-.063-.062a2.5 2.5 0 01-.502-2.753 2.501 2.501 0 012.29-1.51h.082a.818.818 0 000-1.636h-.159a2.5 2.5 0 01-2.288-1.515 1 1 0 01-.07-.255 2.505 2.505 0 01.582-2.574l.055-.055a.818.818 0 10-1.159-1.158l-.062.063a2.496 2.496 0 01-2.748.504A2.501 2.501 0 0112.818 3.9v-.082A.818.818 0 0012 3zm0 5a4 4 0 110 8 4 4 0 010-8zm0 2a2 2 0 100 4 2 2 0 000-4z" fill="none"/>
</svg>
